images/svg/infographic-bathhouse.svg

<svg width="90" height="90" viewBox="0 0 90 90" fill="none" xmlns="http://www.w3.org/2000/svg">
<g clip-path="url(#clip0_31_445)">
<path fill-rule="evenodd" clip-rule="evenodd" d="M3.0481 83.927H86.9519V27.7352L45 4.37427L3.0481 27.7352V83.927ZM9.07447 77.8774V31.2254L45 11.3314L80.9255 31.2254V77.8774H9.07447Z" fill="url(#paint0_linear_31_445)"/>
<path fill-rule="evenodd" clip-rule="evenodd" d="M33.2963 36.67C32.8077 36.1581 32.1096 35.8789 31.3883 35.8789C30.667 35.8789 29.9923 36.1581 29.4804 36.67C27.2699 38.8572 26.0367 41.8587 26.0367 44.9534C26.0367 48.0713 27.2699 51.0495 29.4804 53.26C30.667 54.4466 31.3185 56.0521 31.3185 57.7274C31.3185 59.4027 30.667 61.0082 29.4804 62.1948C28.9685 62.7067 28.6893 63.3815 28.6893 64.1028C28.6893 65.5919 29.8992 66.8251 31.3883 66.8251C32.1096 66.8251 32.8077 66.5227 33.2963 66.0108C35.5068 63.8236 36.74 60.8453 36.74 57.7274C36.74 54.6095 35.5068 51.6312 33.2963 49.4208C32.1329 48.2341 31.4582 46.6286 31.4582 44.9534C31.4582 43.2781 32.1329 41.6726 33.2963 40.4859C33.8082 39.974 34.0874 39.2993 34.0874 38.578C34.0874 37.8567 33.8082 37.1586 33.2963 36.67Z" fill="url(#paint1_linear_31_445)"/>
<path fill-rule="evenodd" clip-rule="evenodd" d="M47.2596 36.67C46.7709 36.1581 46.0729 35.8789 45.3516 35.8789C44.6303 35.8789 43.9555 36.1581 43.4436 36.67C41.2332 38.8572 40 41.8587 40 44.9534C40 48.0713 41.2332 51.0495 43.4436 53.26C44.6303 54.4466 45.2818 56.0521 45.2818 57.7274C45.2818 59.4027 44.6303 61.0082 43.4436 62.1948C42.9317 62.7067 42.6525 63.3815 42.6525 64.1028C42.6525 65.5919 43.8625 66.8251 45.3516 66.8251C46.0729 66.8251 46.7709 66.5227 47.2596 66.0108C49.47 63.8236 50.7032 60.8453 50.7032 57.7274C50.7032 54.6095 49.47 51.6312 47.2596 49.4208C46.0962 48.2341 45.4214 46.6286 45.4214 44.9534C45.4214 43.2781 46.0962 41.6726 47.2596 40.4859C47.7715 39.974 48.0507 39.2993 48.0507 38.578C48.0507 37.8567 47.7715 37.1586 47.2596 36.67Z" fill="url(#paint2_linear_31_445)"/>
<path fill-rule="evenodd" clip-rule="evenodd" d="M61.2228 36.67C60.7342 36.1581 60.0362 35.8789 59.3149 35.8789C58.5936 35.8789 57.9188 36.1581 57.4069 36.67C55.1965 38.8572 53.9633 41.8587 53.9633 44.9534C53.9633 48.0713 55.1965 51.0495 57.4069 53.26C58.5936 54.4466 59.2451 56.0521 59.2451 57.7274C59.2451 59.4027 58.5936 61.0082 57.4069 62.1948C56.895 62.7067 56.6158 63.3815 56.6158 64.1028C56.6158 65.5919 57.8257 66.8251 59.3149 66.8251C60.0362 66.8251 60.7342 66.5227 61.2228 66.0108C63.4333 63.8236 64.6665 60.8453 64.6665 57.7274C64.6665 54.6095 63.4333 51.6312 61.2228 49.4208C60.0594 48.2341 59.3847 46.6286 59.3847 44.9534C59.3847 43.2781 60.0594 41.6726 61.2228 40.4859C61.7347 39.974 62.0139 39.2993 62.0139 38.578C62.0139 37.8567 61.7347 37.1586 61.2228 36.67Z" fill="url(#paint3_linear_31_445)"/>
</g>
<defs>
<linearGradient id="paint0_linear_31_445" x1="96.3289" y1="102.378" x2="26.1531" y2="-18.754" gradientUnits="userSpaceOnUse">
<stop stop-color="#0E42B8"/>
<stop offset="0.568627" stop-color="#1B8CF6"/>
<stop offset="1" stop-color="#65C9FB"/>
</linearGradient>
<linearGradient id="paint1_linear_31_445" x1="39.8578" y1="57.1224" x2="26.9442" y2="37.7403" gradientUnits="userSpaceOnUse">
<stop stop-color="#28B1A1"/>
<stop offset="0.6" stop-color="#57DA98"/>
<stop offset="1" stop-color="#9AE974"/>
</linearGradient>
<linearGradient id="paint2_linear_31_445" x1="53.8211" y1="57.1224" x2="40.9074" y2="37.7403" gradientUnits="userSpaceOnUse">
<stop stop-color="#28B1A1"/>
<stop offset="0.6" stop-color="#57DA98"/>
<stop offset="1" stop-color="#9AE974"/>
</linearGradient>
<linearGradient id="paint3_linear_31_445" x1="67.7844" y1="57.1224" x2="54.8707" y2="37.7403" gradientUnits="userSpaceOnUse">
<stop stop-color="#28B1A1"/>
<stop offset="0.6" stop-color="#57DA98"/>
<stop offset="1" stop-color="#9AE974"/>
</linearGradient>
<clipPath id="clip0_31_445">
<rect width="90" height="90" fill="white"/>
</clipPath>
</defs>
</svg>

<svg width="90" height="90" fill="none" xmlns="http://www.w3.org/2000/svg"><g clip-path="url(#a)" fill-rule="evenodd" clip-rule="evenodd"><path d="M3.048 83.927h83.904V27.735L45 4.375 3.048 27.734v56.192zm6.026-6.05V31.225L45 11.331l35.925 19.894v46.652H9.076z" fill="url(#b)"/><path d="M33.296 36.67c-.488-.512-1.186-.791-1.908-.791-.721 0-1.396.28-1.908.791a11.674 11.674 0 0 0-3.443 8.283c0 3.118 1.233 6.096 3.443 8.307a6.302 6.302 0 0 1 1.838 4.467c0 1.676-.651 3.281-1.838 4.468a2.675 2.675 0 0 0-.79 1.908c0 1.489 1.21 2.722 2.698 2.722.722 0 1.42-.302 1.908-.814a11.634 11.634 0 0 0 3.444-8.284c0-3.117-1.233-6.096-3.444-8.306a6.402 6.402 0 0 1-1.838-4.468c0-1.675.675-3.28 1.838-4.467a2.675 2.675 0 0 0 .791-1.908c0-.721-.279-1.42-.79-1.908z" fill="url(#c)"/><path d="M47.26 36.67c-.49-.512-1.187-.791-1.908-.791-.722 0-1.396.28-1.908.791A11.674 11.674 0 0 0 40 44.953c0 3.118 1.233 6.096 3.444 8.307a6.302 6.302 0 0 1 1.838 4.467c0 1.676-.652 3.281-1.838 4.468a2.675 2.675 0 0 0-.791 1.908c0 1.489 1.21 2.722 2.699 2.722.72 0 1.419-.302 1.908-.814a11.634 11.634 0 0 0 3.443-8.284c0-3.117-1.233-6.096-3.443-8.306a6.402 6.402 0 0 1-1.839-4.468c0-1.675.675-3.28 1.839-4.467a2.675 2.675 0 0 0 .79-1.908c0-.721-.278-1.42-.79-1.908z" fill="url(#d)"/><path d="M61.223 36.67c-.489-.512-1.187-.791-1.908-.791-.721 0-1.396.28-1.908.791a11.674 11.674 0 0 0-3.444 8.283c0 3.118 1.233 6.096 3.444 8.307a6.302 6.302 0 0 1 1.838 4.467c0 1.676-.651 3.281-1.838 4.468a2.675 2.675 0 0 0-.791 1.908c0 1.489 1.21 2.722 2.699 2.722.721 0 1.42-.302 1.908-.814a11.634 11.634 0 0 0 3.444-8.284c0-3.117-1.234-6.096-3.444-8.306a6.402 6.402 0 0 1-1.838-4.468c0-1.675.674-3.28 1.838-4.467a2.675 2.675 0 0 0 .79-1.908c0-.721-.278-1.42-.79-1.908z" fill="url(#e)"/></g><defs><linearGradient id="b" x1="96.329" y1="102.378" x2="26.153" y2="-18.754" gradientUnits="userSpaceOnUse"><stop stop-color="#0E42B8"/><stop offset=".569" stop-color="#1B8CF6"/><stop offset="1" stop-color="#65C9FB"/></linearGradient><linearGradient id="c" x1="39.858" y1="57.122" x2="26.944" y2="37.74" gradientUnits="userSpaceOnUse"><stop stop-color="#28B1A1"/><stop offset=".6" stop-color="#57DA98"/><stop offset="1" stop-color="#9AE974"/></linearGradient><linearGradient id="d" x1="53.821" y1="57.122" x2="40.907" y2="37.74" gradientUnits="userSpaceOnUse"><stop stop-color="#28B1A1"/><stop offset=".6" stop-color="#57DA98"/><stop offset="1" stop-color="#9AE974"/></linearGradient><linearGradient id="e" x1="67.784" y1="57.122" x2="54.871" y2="37.74" gradientUnits="userSpaceOnUse"><stop stop-color="#28B1A1"/><stop offset=".6" stop-color="#57DA98"/><stop offset="1" stop-color="#9AE974"/></linearGradient><clipPath id="a"><path fill="#fff" d="M0 0h90v90H0z"/></clipPath></defs></svg>
